X: 710
T: Katydid
B: jims roots
M:4/4
Q: 1/4=100
K:C
V:1 
%S: Critton Hollow
%R: Reel
|:"C"{d/}e4cdcA|GAGE DCA,C|G,A,CD EGAB|cdeg "G"a2g2|
"C"{d/}e4cdcA|GAGE DCA,C|G,A,CD EGAB|"G"dc-c2 "C"c2:|
|:eg|"Am"abag edeg|abag e2eg|abag egag|"C"ec-c2 c2 eg|
"Am"abag edeg|abag e4|c'4 gagf|"G"ec-c2 "C"c2:|
% abcbook-tune_id 6298c25d940b064b5d41d95f


% abcbook-boost 0
% abcbook-tablature 
% abcbook-transpose 
% abcbook-lastupdated 1654178399437
% abcbook-soundfonts 
% abcbook-repeats 1


